src/assets/svg/svgPlantLamp.svg

<svg xmlns="http://www.w3.org/2000/svg" xml:space="preserve" style="fill-rule:evenodd;clip-rule:evenodd;stroke-linejoin:round;stroke-miterlimit:2" viewBox="0 0 512 512"><path d="M1260.28 322.32c-1.17 3.187-1.83 6.39-2 9.61-.05.96-.55 1.447-1.52 1.46l-.44.01c-1.29.027-1.92-.607-1.88-1.9.41-13.23 9.62-25.92 20.3-32.37.21-.132.39-.31.52-.52q1.635-2.71-1.71-2.35c-.22.026-.44.105-.64.23-5.3 3.373-10.07 7.907-14.32 13.6-.47.62-1.05 1.023-1.76 1.21l-.06.015c-.88.201-1.76-.36-1.97-1.242 0-.021-.01-.042-.01-.063-1.51-7.91 4.3-14.78 10.57-18.41 9.01-5.227 18.73-7.577 29.15-7.05.47.024.89.31 1.09.74q.6 1.3-.21 2.35c-5.17 6.74-5.69 16.69-7.28 24.76-1.37 6.933-5.22 11.207-11.53 12.82-5.9 1.513-11.09.477-15.56-3.11-.34-.273-.59-.203-.74.21" style="fill-rule:nonzero" transform="translate(-6950.76 -1591.09)scale(5.6065)"/><path d="M1314.06 305.76c2.5 10.74-.69 20.25-8.28 27.86-.95.96-1.6 2.407-1.94 4.34-.81 4.59-3.47 14.17-9.32 14.23-4.93.047-10.02.053-15.26.02q-4.38-.03-6.45-4.02-2.955-5.69-4.02-12.25a2.05 2.05 0 0 0-.32-.79l-2.26-3.24a1.6 1.6 0 0 1-.28-.892c0-.826.66-1.516 1.48-1.558 3.31-.16 6.71.24 9.91-.72 15.63-4.67 14.22-18.43 17.21-31.24.89-3.79 4.02-11.63 9.29-7.4 5.4 4.333 8.81 9.553 10.24 15.66" style="fill-rule:nonzero" transform="translate(-6950.76 -1591.09)scale(5.6065)"/><path d="m315.08 406.413.03 17.38a1.46 1.46 0 0 1-1.454 1.46l-103.16.18a1.46 1.46 0 0 1-1.46-1.454l-.03-17.38a1.46 1.46 0 0 1 1.455-1.46l103.16-.18a1.46 1.46 0 0 1 1.46 1.454m-.378 42.243v17.626a1.39 1.39 0 0 1-1.401 1.39H210.927a1.39 1.39 0 0 1-1.402-1.39v-17.626c0-.768.617-1.39 1.402-1.39h102.375a1.39 1.39 0 0 1 1.401 1.39m-20.493 43.062-.054 15.71a1.34 1.34 0 0 1-1.345 1.334l-60.785-.212a1.34 1.34 0 0 1-1.335-1.344l.055-15.71a1.34 1.34 0 0 1 1.344-1.335l60.786.212a1.34 1.34 0 0 1 1.335 1.345"/></svg>

<?xml version="1.0" encoding="UTF-8" standalone="no"?>
<!DOCTYPE svg PUBLIC "-//W3C//DTD SVG 1.1//EN" "http://www.w3.org/Graphics/SVG/1.1/DTD/svg11.dtd">
<svg width="100%" height="100%" viewBox="0 0 512 512" version="1.1" xmlns="http://www.w3.org/2000/svg" xmlns:xlink="http://www.w3.org/1999/xlink" xml:space="preserve" xmlns:serif="http://www.serif.com/" style="fill-rule:evenodd;clip-rule:evenodd;stroke-linejoin:round;stroke-miterlimit:2;">
    <g transform="matrix(5.6065,0,0,5.6065,-6950.76,-1591.09)">
        <g>
            <path d="M1260.28,322.32C1259.11,325.507 1258.45,328.71 1258.28,331.93C1258.23,332.89 1257.73,333.377 1256.76,333.39L1256.32,333.4C1255.03,333.427 1254.4,332.793 1254.44,331.5C1254.85,318.27 1264.06,305.58 1274.74,299.13C1274.95,298.998 1275.13,298.82 1275.26,298.61C1276.35,296.803 1275.78,296.02 1273.55,296.26C1273.33,296.286 1273.11,296.365 1272.91,296.49C1267.61,299.863 1262.84,304.397 1258.59,310.09C1258.12,310.71 1257.54,311.113 1256.83,311.3C1256.81,311.305 1256.79,311.31 1256.77,311.315C1255.89,311.516 1255.01,310.955 1254.8,310.073C1254.8,310.052 1254.79,310.031 1254.79,310.01C1253.28,302.1 1259.09,295.23 1265.36,291.6C1274.37,286.373 1284.09,284.023 1294.51,284.55C1294.98,284.574 1295.4,284.86 1295.6,285.29C1296,286.157 1295.93,286.94 1295.39,287.64C1290.22,294.38 1289.7,304.33 1288.11,312.4C1286.74,319.333 1282.89,323.607 1276.58,325.22C1270.68,326.733 1265.49,325.697 1261.02,322.11C1260.68,321.837 1260.43,321.907 1260.28,322.32Z" style="fill-rule:nonzero;"/>
            <path d="M1314.06,305.76C1316.56,316.5 1313.37,326.01 1305.78,333.62C1304.83,334.58 1304.18,336.027 1303.84,337.96C1303.03,342.55 1300.37,352.13 1294.52,352.19C1289.59,352.237 1284.5,352.243 1279.26,352.21C1276.34,352.19 1274.19,350.85 1272.81,348.19C1270.84,344.397 1269.5,340.313 1268.79,335.94C1268.74,335.657 1268.63,335.387 1268.47,335.15L1266.21,331.91C1266.03,331.648 1265.93,331.337 1265.93,331.018C1265.93,330.192 1266.59,329.502 1267.41,329.46C1270.72,329.3 1274.12,329.7 1277.32,328.74C1292.95,324.07 1291.54,310.31 1294.53,297.5C1295.42,293.71 1298.55,285.87 1303.82,290.1C1309.22,294.433 1312.63,299.653 1314.06,305.76Z" style="fill-rule:nonzero;"/>
            <g transform="matrix(0.999998,-0.00174533,0.00174533,0.999998,1286.51,357.85)">
                <path d="M9.46,-1.55L9.46,1.55C9.46,1.693 9.343,1.81 9.2,1.81L-9.2,1.81C-9.343,1.81 -9.46,1.693 -9.46,1.55L-9.46,-1.55C-9.46,-1.693 -9.343,-1.81 -9.2,-1.81L9.2,-1.81C9.343,-1.81 9.46,-1.693 9.46,-1.55Z"/>
            </g>
            <path d="M1295.9,363.818L1295.9,366.962C1295.9,367.099 1295.79,367.21 1295.65,367.21L1277.39,367.21C1277.25,367.21 1277.14,367.099 1277.14,366.962L1277.14,363.818C1277.14,363.681 1277.25,363.57 1277.39,363.57L1295.65,363.57C1295.79,363.57 1295.9,363.681 1295.9,363.818Z"/>
            <g transform="matrix(0.999994,0.00349065,-0.00349065,0.999994,1286.58,372.88)">
                <path d="M5.66,-1.401L5.66,1.401C5.66,1.533 5.553,1.64 5.421,1.64L-5.421,1.64C-5.553,1.64 -5.66,1.533 -5.66,1.401L-5.66,-1.401C-5.66,-1.533 -5.553,-1.64 -5.421,-1.64L5.421,-1.64C5.553,-1.64 5.66,-1.533 5.66,-1.401Z"/>
            </g>
        </g>
    </g>
</svg>
